icons/bhi_checkbox-filled.svg

<svg xmlns="http://www.w3.org/2000/svg" viewBox="0 0 512 512" enable-background="new 0 0 512 512"><path fill="#010101" d="M455 0h-398.1c-31.6 0-56.9 25.6-56.9 56.9v398.1c0 31.3 25.3 56.9 56.9 56.9h398.1c31.6 0 56.9-25.6 56.9-56.9v-398.1c0-31.3-25.3-56.9-56.9-56.9zm-255.9 398.1l-142.2-142.1 40.1-40.1 102.1 101.8 215.9-215.9 40.1 40.4-256 255.9z"/></svg>

<?xml version="1.0" encoding="utf-8"?>
<!-- Generator: Adobe Illustrator 19.2.0, SVG Export Plug-In . SVG Version: 6.00 Build 0)  -->
<svg version="1.1" id="Layer_1" xmlns="http://www.w3.org/2000/svg" xmlns:xlink="http://www.w3.org/1999/xlink" x="0px" y="0px"
	 viewBox="0 0 512 512" enable-background="new 0 0 512 512" xml:space="preserve">
<path fill="#010101" d="M455,0H56.9C25.3,0,0,25.6,0,56.9V455c0,31.3,25.3,56.9,56.9,56.9H455c31.6,0,56.9-25.6,56.9-56.9V56.9
	C511.9,25.6,486.6,0,455,0z M199.1,398.1L56.9,256L97,215.9l102.1,101.8l215.9-215.9l40.1,40.4L199.1,398.1z"/>
</svg>
